tools/download-figma-icons/icons/outlined-medium/smartphone.svg

<svg width="24" height="24" viewBox="0 0 24 24" fill="none" xmlns="http://www.w3.org/2000/svg">
<path fill-rule="evenodd" clip-rule="evenodd" d="M16.3279 22.5C16.9316 22.5 17.4221 22.0095 17.4221 21.4058V2.59425C17.4221 1.9905 16.9316 1.5 16.3279 1.5H15.7316C15.7249 2.10525 15.2329 2.59425 14.6261 2.59425H9.46237C8.85487 2.59425 8.36362 2.10525 8.35687 1.5H7.84387C7.24087 1.5 6.75037 1.9905 6.75037 2.59425V21.4058C6.75037 22.0095 7.24087 22.5 7.84387 22.5H16.3279ZM7.84387 0H16.3279C17.7581 0 18.9221 1.164 18.9221 2.59425V21.4058C18.9221 22.836 17.7581 24 16.3279 24H7.84387C6.41362 24 5.25037 22.836 5.25037 21.4058V2.59425C5.25037 1.164 6.41362 0 7.84387 0ZM9.79395 20.25H14.2939C14.7087 20.25 15.0439 20.5853 15.0439 21C15.0439 21.4147 14.7087 21.75 14.2939 21.75H9.79395C9.3792 21.75 9.04395 21.4147 9.04395 21C9.04395 20.5853 9.3792 20.25 9.79395 20.25Z" fill="black"/>
</svg>

<svg xmlns="http://www.w3.org/2000/svg" width="24" height="24" fill="none" viewBox="0 0 24 24"><path fill="currentColor" fill-rule="evenodd" d="M16.328 22.5c.604 0 1.094-.49 1.094-1.094V2.594c0-.603-.49-1.094-1.094-1.094h-.596a1.106 1.106 0 0 1-1.106 1.094H9.462A1.106 1.106 0 0 1 8.357 1.5h-.513c-.603 0-1.094.49-1.094 1.094v18.812c0 .604.49 1.094 1.094 1.094zM7.844 0h8.484a2.597 2.597 0 0 1 2.594 2.594v18.812A2.597 2.597 0 0 1 16.328 24H7.844a2.597 2.597 0 0 1-2.594-2.594V2.594A2.597 2.597 0 0 1 7.844 0m1.95 20.25h4.5a.75.75 0 1 1 0 1.5h-4.5a.75.75 0 1 1 0-1.5" clip-rule="evenodd"/></svg>
